X:1
T:Io di poca fede?
T:Io di poca fede?
T:Giovanni Ghizzolo
C:Giovanni Ghizzolo
%%score [ 1 2 3 ]
L:1/8
Q:1/4=120
M:4/4
K:C
V:1 treble nm="Soprano" snm="S"
V:2 treble nm="MusicXML Part"
V:3 bass nm="BC" snm="BC"
V:1
"^Continuo: André Vierendeels""^Editor: André Vierendeels (30/09/08)""^Source: Madrigali et Arie---Libro terzo---Venetia---A.Raverij.1609." z4 A4- | %1
w: Io|
 AEEF D4 | E4 z2 e2- | eBBc A4 | B8 | BB d6- | d2 EF E4 | D4 z2 GF | A2 A>G Bc c>B | d2 d2 e3 d | %10
w: _ di po- ca fe-|de? Io|_ di po- ca fe-|de?|In- fi- del'|_ e ch'il cre-|de al- tra|fe di mia fe non far pos-|s'i- o donn' ho-|
 d4- d cde | f8- | f2 Ac B4 | A8 :: z2 B2 d4- | dGGA AA A>G | B4 B4 | z2 dB e2 dc | d2 d3 fff | %19
w: mai _ ch'el _ _|_|* mo- * ri-|re.|Ma- tu|_ poi che fia fa- tio'il tuo de-|si- re|so- vra'l mar- mo sem-|bian- te a la mia|
 edee c4- | c2 cc c3 d | d4 d4 | z2 G4 G2 | G2 GG G4- | G2 A2 A2 B2 | B8 | A8 :| %27
w: fe con- stan- te scri-|* ni co'l san- gue|mi- o|ques- ti|pria che di fe-|* di vit' us-|ci-|o.|
V:2
 [FA]8 | [EA]4 [G_B]4 | [^CEA]8 | [GB]4 [CFA]4 | [E^GB]8 | [D^F]8 | [EAc]8 | [FA]4 [Ec]4 | %8
 [Ac]2 [Gc]2 [GB]2 [Ec]2 | [DA]4 [EG]4 | [DB]8 | [FA]8 | [FA]2 [DA]4 ^G2 | [EAc]8 :: [DGB]8 | %15
 [Gc]4 [DG]2 [^FA]2 | [DGB]8 | [D-GB-]8 | [DGB]4 [FA]4 | [Ec]8 | [FAc]4 [Gc]4 | [D-GB-]8 | %22
 [D-GB-]8 | [DGB]8 | [Ec]4 [FA]2 [Bd]2 | G2 AB cd [^Ge]2 | [EA^c]8 :| %27
V:3
 D,8 | A,,4 _B,,4 | A,,8 | E,4 F,4 | E,8 | B,,8 | A,,8 | D,4 C,4 | F,2 E,2 G,2 A,2 | A,4 C,4 | %10
 G,8 | D,8 | C,4 E,4 | A,,8 :: G,,4 G,4 | E,4 D,4 | G,,8 | G,,8 | G,,4 D,4 | A,,4 A,4 | F,4 E,4 | %21
 G,4 G,,4 | G,4 G,2 F,2"^Note: original keys: Ut 1st, Fa 4rth" | E,2 D,2 C,2 B,,2 | C,4 D,4 | E,8 | %26
 A,,8 :| %27

